src/assets/icons/checkbox-done.svg

<svg width="24" height="24" viewBox="0 0 24 24" fill="none" xmlns="http://www.w3.org/2000/svg">
<path d="M14.791 2C19.8418 2.00009 21.9999 4.15815 22 9.20898V14.791C21.9999 19.8418 19.8418 21.9999 14.791 22H9.20898C4.15815 21.9999 2.00009 19.8418 2 14.791V9.20898C2.00009 4.15816 4.15816 2.00009 9.20898 2H14.791ZM16.7803 8.62988C16.4903 8.33988 16.0097 8.33988 15.7197 8.62988L10.5801 13.7695L8.28027 11.4697C7.99028 11.1797 7.50973 11.1797 7.21973 11.4697C6.92973 11.7597 6.92973 12.2403 7.21973 12.5303L10.0498 15.3604C10.1898 15.5003 10.3801 15.5801 10.5801 15.5801C10.78 15.58 10.9704 15.5003 11.1104 15.3604L16.7803 9.69043C17.0702 9.40047 17.0702 8.9199 16.7803 8.62988Z" fill="#ABD27A"/>
</svg>

<svg xmlns="http://www.w3.org/2000/svg" width="24" height="24" fill="none"><path fill="#253017" d="M14.791 2C19.841 2 22 4.158 22 9.209v5.582C22 19.841 19.842 22 14.791 22H9.209C4.159 22 2 19.842 2 14.791V9.209C2 4.159 4.158 2 9.209 2h5.582Zm1.99 6.63a.755.755 0 0 0-1.061 0l-5.14 5.14-2.3-2.3a.755.755 0 0 0-1.06 0c-.29.29-.29.77 0 1.06l2.83 2.83a.75.75 0 0 0 1.06 0l5.67-5.67c.29-.29.29-.77 0-1.06Z"/></svg>
